X:8
T:Banks of Newfoundland, The  
B:CRE1.008 (Bruacha Thalamh an Eisc)
F:file ID: cre.1/008banks_n
S:John Brophy
M:6/8
Q:160
R:jig
K:G
d/c/|BAG AGF|GBd gfg|ded BGA|BAA Adc|
BAG AGF|GBd gfg|ded BGA|BGG G2:|
B/c/|dgg ged|eaa aga|bge dBG|BAA ABc|
dgg ged|eaa aga|bge dBA|BGG GBc|
dgg ged|eaa aga|bge dBG|BAA Adc|
BAG AGF|GBd gfg|ded BGA|BGG HG3|]

%%%

